; G-Code generated by Simplify3D(R) Version 3.0.2
; X 5, 2018 at 8:44:43 ODP.
; Settings Summary
;   processName,Process1
;   applyToModels,drzak buzzeru
;   profileName,drzak buzzeru (modified)
;   profileVersion,2018-09-24 15:11:24
;   baseProfile,Default (modified)
;   printMaterial,ABS
;   printQuality,High
;   printExtruders,
;   extruderName,Primary Extruder
;   extruderToolheadNumber,0
;   extruderDiameter,0.4
;   extruderAutoWidth,1
;   extruderWidth,0.48
;   extrusionMultiplier,1.15
;   extruderUseRetract,1
;   extruderRetractionDistance,1
;   extruderExtraRestartDistance,0
;   extruderRetractionZLift,0
;   extruderRetractionSpeed,900
;   extruderUseCoasting,0
;   extruderCoastingDistance,0.2
;   extruderUseWipe,0
;   extruderWipeDistance,5
;   primaryExtruder,0
;   layerHeight,0.28
;   topSolidLayers,4
;   bottomSolidLayers,4
;   perimeterOutlines,3
;   printPerimetersInsideOut,1
;   startPointOption,2
;   startPointOriginX,0
;   startPointOriginY,0
;   startPointOriginZ,300
;   sequentialIslands,0
;   spiralVaseMode,0
;   firstLayerHeightPercentage,90
;   firstLayerWidthPercentage,100
;   firstLayerUnderspeed,0.5
;   useRaft,0
;   raftExtruder,0
;   raftLayers,3
;   raftOffset,3
;   raftSeparationDistance,0.14
;   raftInfill,85
;   disableRaftBaseLayers,0
;   useSkirt,1
;   skirtExtruder,0
;   skirtLayers,2
;   skirtOutlines,2
;   skirtOffset,4
;   usePrimePillar,0
;   primePillarExtruder,999
;   primePillarWidth,12
;   primePillarLocation,7
;   primePillarSpeedMultiplier,1
;   useOozeShield,0
;   oozeShieldExtruder,999
;   oozeShieldOffset,2
;   oozeShieldOutlines,1
;   oozeShieldSidewallShape,1
;   oozeShieldSidewallAngle,30
;   oozeShieldSpeedMultiplier,1
;   infillExtruder,0
;   internalInfillPattern,Triangular
;   externalInfillPattern,Rectilinear
;   infillPercentage,50
;   outlineOverlapPercentage,50
;   infillExtrusionWidthPercentage,100
;   minInfillLength,0
;   infillLayerInterval,1
;   infillAngles,0,60,-60
;   overlapInfillAngles,1
;   generateSupport,1
;   supportExtruder,0
;   supportInfillPercentage,50
;   supportExtraInflation,0
;   denseSupportLayers,0
;   denseSupportInfillPercentage,70
;   supportLayerInterval,1
;   supportHorizontalPartOffset,0.1
;   supportUpperSeparationLayers,0
;   supportLowerSeparationLayers,1
;   supportType,0
;   supportGridSpacing,2
;   maxOverhangAngle,45
;   supportAngles,0
;   temperatureName,Primary Extruder,Bed
;   temperatureNumber,0,2
;   temperatureSetpointCount,1,1
;   temperatureSetpointLayers,1,1
;   temperatureSetpointTemperatures,230,100
;   temperatureStabilizeAtStartup,0,0
;   temperatureHeatedBed,0,1
;   temperatureRelayBetweenLayers,0,0
;   temperatureRelayBetweenLoops,0,0
;   fanLayers,1
;   fanSpeeds,0
;   blipFanToFullPower,0
;   adjustSpeedForCooling,1
;   minSpeedLayerTime,15
;   minCoolingSpeedSlowdown,20
;   increaseFanForCooling,0
;   minFanLayerTime,45
;   maxCoolingFanSpeed,100
;   increaseFanForBridging,0
;   bridgingFanSpeed,100
;   use5D,1
;   relativeEdistances,1
;   allowEaxisZeroing,1
;   independentExtruderAxes,0
;   includeM10123,0
;   stickySupport,1
;   applyToolheadOffsets,0
;   gcodeXoffset,0
;   gcodeYoffset,0
;   gcodeZoffset,0
;   overrideMachineDefinition,0
;   machineTypeOverride,0
;   strokeXoverride,200
;   strokeYoverride,200
;   strokeZoverride,200
;   originOffsetXoverride,0
;   originOffsetYoverride,0
;   originOffsetZoverride,0
;   homeXdirOverride,-1
;   homeYdirOverride,-1
;   homeZdirOverride,-1
;   flipXoverride,1
;   flipYoverride,-1
;   flipZoverride,1
;   toolheadOffsets,0,0|0,0|0,0|0,0|0,0|0,0
;   overrideFirmwareConfiguration,0
;   firmwareTypeOverride,RepRap (Marlin/Repetier/Sprinter)
;   GPXconfigOverride,r2
;   baudRateOverride,115200
;   overridePrinterModels,0
;   printerModelsOverride
;   startingGcode,M201 X750 Y750 E100,G28 X0.0 Y0.0,G28 Z,G92 E0.0,G1 X5.0 Y60.0 E2.0  F1000.0,G1 X5.0 Y100.0 E4.5  F1000.0,G92 Z0.35,G92 E0.0,G21 ; set units to millimeters,G90 ; use absolute coordinates,M83 ; use relative distances for extrusion
;   layerChangeGcode,
;   retractionGcode,
;   toolChangeGcode,
;   endingGcode,M104 S0 ; turn off temperature,M140 S0 ; turn off heatbed,G28 X0  ; home X axis,M84     ; disable motors
;   createX3G,0
;   celebration,0
;   celebrationSong,Random Song
;   createMB5G,0
;   postProcessing,
;   defaultSpeed,4500
;   outlineUnderspeed,0.4
;   solidInfillUnderspeed,0.7
;   supportUnderspeed,0.8
;   rapidXYspeed,5400
;   rapidZspeed,1002
;   minBridgingArea,50
;   bridgingExtraInflation,0
;   bridgingExtrusionMultiplier,1
;   bridgingSpeedMultiplier,1
;   filamentDiameter,2.85
;   filamentPricePerKg,550
;   filamentDensity,0.65
;   useMinPrintHeight,0
;   minPrintHeight,0
;   useMaxPrintHeight,0
;   maxPrintHeight,0
;   useDiaphragm,0
;   diaphragmLayerInterval,20
;   robustSlicing,1
;   mergeAllIntoSolid,0
;   onlyRetractWhenCrossingOutline,1
;   retractBetweenLayers,1
;   useRetractionMinTravel,0
;   retractionMinTravel,3
;   retractWhileWiping,0
;   onlyWipeOutlines,1
;   avoidCrossingOutline,0
;   maxMovementDetourFactor,3
;   toolChangeRetractionDistance,12
;   toolChangeExtraRestartDistance,-0.5
;   toolChangeRetractionSpeed,600
;   allowThinWallGapFill,1
;   thinWallAllowedOverlapPercentage,15
;   horizontalSizeCompensation,0
G90
M83
M106 S0
M140 S100
M104 S230 T0
M201 X750 Y750 E100
G28 X0.0 Y0.0
G28 Z
G92 E0.0
G1 X5.0 Y60.0 E2.0  F1000.0
G1 X5.0 Y100.0 E4.5  F1000.0
G92 Z0.35
G92 E0.0
G21 ; set units to millimeters
G90 ; use absolute coordinates
M83 ; use relative distances for extrusion
G1 E-1.0000 F900
G1 Z0.252 F1002
; layer 1, Z = 0.252
T0
; tool H0.280 W0.480
; skirt
G1 X86.573 Y82.320 F5400
G1 E1.0000 F270
G1 X87.448 Y81.453 E0.0298 F2250
G1 X87.457 Y81.444 E0.0003
G1 X87.576 Y81.334 E0.0039
G1 X87.586 Y81.326 E0.0003
G1 X88.450 Y80.588 E0.0275
G1 X88.462 Y80.578 E0.0004
G1 X88.612 Y80.461 E0.0046
G1 X88.625 Y80.452 E0.0004
G1 X89.951 Y79.506 E0.0395
G1 X89.964 Y79.497 E0.0004
G1 X90.123 Y79.394 E0.0046
G1 X90.137 Y79.385 E0.0004
G1 X91.111 Y78.812 E0.0274
G1 X91.122 Y78.806 E0.0003
G1 X91.256 Y78.733 E0.0037
G1 X91.267 Y78.727 E0.0003
G1 X92.262 Y78.231 E0.0269
G1 X92.273 Y78.226 E0.0003
G1 X92.412 Y78.163 E0.0037
G1 X92.423 Y78.158 E0.0003
G1 X93.450 Y77.732 E0.0269
G1 X93.462 Y77.728 E0.0003
G1 X93.605 Y77.675 E0.0037
G1 X93.616 Y77.670 E0.0003
G1 X94.657 Y77.322 E0.0266
G1 X94.667 Y77.319 E0.0002
G1 X94.785 Y77.283 E0.0030
G1 X94.795 Y77.280 E0.0002
G1 X95.498 Y77.089 E0.0176
G1 X95.508 Y77.086 E0.0003
G1 X95.638 Y77.055 E0.0032
G1 X95.648 Y77.053 E0.0003
G1 X96.868 Y76.799 E0.0302
G1 X96.884 Y76.796 E0.0004
G1 X97.081 Y76.764 E0.0048
G1 X97.098 Y76.762 E0.0004
G1 X98.731 Y76.576 E0.0398
G1 X98.748 Y76.575 E0.0004
G1 X98.957 Y76.561 E0.0051
G1 X98.974 Y76.560 E0.0004
G1 X100.354 Y76.536 E0.0334
G1 X100.366 Y76.536 E0.0003
G1 X100.518 Y76.539 E0.0037
G1 X100.531 Y76.539 E0.0003
G1 X101.392 Y76.584 E0.0209
G1 X101.403 Y76.585 E0.0003
G1 X101.536 Y76.596 E0.0032
G1 X101.547 Y76.597 E0.0003
G1 X102.642 Y76.722 E0.0267
G1 X102.654 Y76.724 E0.0003
G1 X102.805 Y76.746 E0.0037
G1 X102.817 Y76.748 E0.0003
G1 X103.910 Y76.951 E0.0269
G1 X103.922 Y76.953 E0.0003
G1 X104.071 Y76.986 E0.0037
G1 X104.083 Y76.989 E0.0003
G1 X105.159 Y77.267 E0.0269
G1 X105.171 Y77.271 E0.0003
G1 X105.317 Y77.314 E0.0037
G1 X105.329 Y77.318 E0.0003
G1 X106.375 Y77.667 E0.0267
G1 X106.385 Y77.671 E0.0003
G1 X106.510 Y77.717 E0.0032
G1 X106.520 Y77.721 E0.0003
G1 X107.302 Y78.037 E0.0204
G1 X107.311 Y78.041 E0.0002
G1 X107.415 Y78.086 E0.0028
G1 X107.424 Y78.090 E0.0002
G1 X108.188 Y78.446 E0.0204
G1 X108.198 Y78.451 E0.0003
G1 X108.317 Y78.511 E0.0032
G1 X108.327 Y78.516 E0.0003
G1 X109.296 Y79.042 E0.0267
G1 X109.306 Y79.048 E0.0003
G1 X109.438 Y79.125 E0.0037
G1 X109.448 Y79.132 E0.0003
G1 X110.386 Y79.729 E0.0269
G1 X110.396 Y79.736 E0.0003
G1 X110.522 Y79.822 E0.0037
G1 X110.532 Y79.829 E0.0003
G1 X111.418 Y80.485 E0.0267
G1 X111.427 Y80.491 E0.0003
G1 X111.531 Y80.574 E0.0032
G1 X111.540 Y80.581 E0.0003
G1 X112.193 Y81.129 E0.0207
G1 X112.202 Y81.136 E0.0003
G1 X112.301 Y81.225 E0.0032
G1 X112.309 Y81.232 E0.0003
G1 X113.105 Y81.987 E0.0266
G1 X113.114 Y81.996 E0.0003
G1 X113.214 Y82.097 E0.0035
G1 X113.222 Y82.106 E0.0003
G1 X113.886 Y82.823 E0.0237
G1 X113.893 Y82.831 E0.0003
G1 X113.980 Y82.932 E0.0032
G1 X113.988 Y82.940 E0.0003
G1 X114.606 Y83.697 E0.0237
G1 X114.614 Y83.706 E0.0003
G1 X114.700 Y83.820 E0.0035
G1 X114.707 Y83.829 E0.0003
G1 X115.345 Y84.722 E0.0266
G1 X115.351 Y84.731 E0.0003
G1 X115.425 Y84.842 E0.0032
G1 X115.431 Y84.851 E0.0003
G1 X115.883 Y85.574 E0.0207
G1 X115.889 Y85.584 E0.0003
G1 X115.956 Y85.699 E0.0032
G1 X115.961 Y85.708 E0.0003
G1 X116.496 Y86.694 E0.0272
G1 X116.504 Y86.708 E0.0004
G1 X116.587 Y86.878 E0.0046
G1 X116.594 Y86.893 E0.0004
G1 X117.251 Y88.404 E0.0399
G1 X117.258 Y88.421 E0.0005
G1 X117.338 Y88.635 E0.0055
G1 X117.344 Y88.653 E0.0005
G1 X117.843 Y90.234 E0.0402
G1 X117.848 Y90.250 E0.0004
G1 X117.902 Y90.453 E0.0051
G1 X117.906 Y90.470 E0.0004
G1 X118.195 Y91.829 E0.0337
G1 X118.198 Y91.842 E0.0003
G1 X118.227 Y92.011 E0.0041
G1 X118.229 Y92.025 E0.0003
G1 X118.374 Y93.128 E0.0269
G1 X118.376 Y93.139 E0.0003
G1 X118.389 Y93.272 E0.0032
G1 X118.390 Y93.283 E0.0003
G1 X118.452 Y94.162 E0.0214
G1 X118.452 Y94.176 E0.0003
G1 X118.457 Y94.347 E0.0041
G1 X118.458 Y94.362 E0.0003
G1 X118.444 Y95.963 E0.0388
G1 X118.443 Y95.977 E0.0003
G1 X118.435 Y96.147 E0.0041
G1 X118.434 Y96.161 E0.0003
G1 X118.359 Y97.029 E0.0211
G1 X118.358 Y97.039 E0.0003
G1 X118.342 Y97.172 E0.0032
G1 X118.341 Y97.182 E0.0003
G1 X118.176 Y98.287 E0.0270
G1 X118.174 Y98.301 E0.0004
G1 X118.140 Y98.479 E0.0044
G1 X118.136 Y98.493 E0.0004
G1 X117.790 Y99.967 E0.0367
G1 X117.786 Y99.984 E0.0004
G1 X117.728 Y100.185 E0.0051
G1 X117.723 Y100.202 E0.0004
G1 X117.240 Y101.627 E0.0365
G1 X117.236 Y101.639 E0.0003
G1 X117.178 Y101.790 E0.0039
G1 X117.173 Y101.803 E0.0003
G1 X116.831 Y102.610 E0.0212
G1 X116.826 Y102.621 E0.0003
G1 X116.762 Y102.759 E0.0037
G1 X116.756 Y102.770 E0.0003
G1 X116.132 Y103.996 E0.0333
G1 X116.125 Y104.011 E0.0004
G1 X116.026 Y104.184 E0.0048
G1 X116.018 Y104.198 E0.0004
G1 X115.206 Y105.486 E0.0369
G1 X115.197 Y105.500 E0.0004
G1 X115.079 Y105.669 E0.0050
G1 X115.069 Y105.682 E0.0004
G1 X113.937 Y107.151 E0.0449
G1 X113.580 Y107.673 E0.0153
G1 X113.211 Y108.335 E0.0184
G1 X112.956 Y108.915 E0.0154
G1 X112.721 Y109.641 E0.0185
G1 X112.558 Y110.408 E0.0190
G1 X112.495 Y110.950 E0.0132
G1 X112.425 Y112.559 E0.0390
G1 X112.424 Y112.578 E0.0005
G1 X112.402 Y112.805 E0.0055
G1 X112.400 Y112.824 E0.0005
G1 X112.250 Y113.834 E0.0248
G1 X112.247 Y113.850 E0.0004
G1 X112.209 Y114.046 E0.0048
G1 X112.205 Y114.062 E0.0004
G1 X112.011 Y114.858 E0.0198
G1 X112.006 Y114.876 E0.0005
G1 X111.941 Y115.094 E0.0055
G1 X111.935 Y115.112 E0.0005
G1 X111.519 Y116.276 E0.0300
G1 X111.512 Y116.294 E0.0005
G1 X111.424 Y116.504 E0.0055
G1 X111.417 Y116.521 E0.0005
G1 X111.064 Y117.255 E0.0197
G1 X111.057 Y117.269 E0.0004
G1 X110.968 Y117.436 E0.0046
G1 X110.960 Y117.450 E0.0004
G1 X110.469 Y118.279 E0.0233
G1 X110.458 Y118.297 E0.0005
G1 X110.315 Y118.509 E0.0062
G1 X110.303 Y118.526 E0.0005
G1 X109.491 Y119.589 E0.0324
G1 X109.478 Y119.606 E0.0005
G1 X109.304 Y119.807 E0.0064
G1 X109.289 Y119.823 E0.0005
G1 X108.563 Y120.567 E0.0252
G1 X108.551 Y120.579 E0.0004
G1 X108.406 Y120.714 E0.0048
G1 X108.393 Y120.725 E0.0004
G1 X107.781 Y121.248 E0.0195
G1 X107.768 Y121.258 E0.0004
G1 X107.611 Y121.380 E0.0048
G1 X107.598 Y121.390 E0.0004
G1 X106.767 Y121.976 E0.0246
G1 X106.752 Y121.986 E0.0004
G1 X106.568 Y122.103 E0.0053
G1 X106.553 Y122.112 E0.0004
G1 X105.719 Y122.584 E0.0232
G1 X105.703 Y122.592 E0.0004
G1 X105.508 Y122.690 E0.0053
G1 X105.492 Y122.698 E0.0004
G1 X102.503 Y124.014 E0.0791
G1 X102.140 Y123.984 E0.0088
G1 X100.000 Y122.590 E0.0619
G1 X97.857 Y123.983 E0.0619
G1 X97.494 Y124.013 E0.0088
G1 X94.504 Y122.696 E0.0791
G1 X94.487 Y122.688 E0.0005
G1 X94.284 Y122.586 E0.0055
G1 X94.267 Y122.577 E0.0005
G1 X93.369 Y122.063 E0.0251
G1 X93.353 Y122.053 E0.0005
G1 X93.161 Y121.930 E0.0055
G1 X93.146 Y121.920 E0.0005
G1 X92.305 Y121.315 E0.0251
G1 X92.290 Y121.304 E0.0005
G1 X92.113 Y121.162 E0.0055
G1 X92.098 Y121.150 E0.0005
G1 X91.325 Y120.461 E0.0251
G1 X91.312 Y120.448 E0.0005
G1 X91.150 Y120.288 E0.0055
G1 X91.137 Y120.275 E0.0005
G1 X90.440 Y119.509 E0.0251
G1 X90.428 Y119.495 E0.0005
G1 X90.283 Y119.319 E0.0055
G1 X90.272 Y119.304 E0.0005
G1 X89.658 Y118.470 E0.0251
G1 X89.648 Y118.455 E0.0005
G1 X89.523 Y118.265 E0.0055
G1 X89.513 Y118.249 E0.0005
G1 X88.999 Y117.372 E0.0246
G1 X88.991 Y117.359 E0.0004
G1 X88.902 Y117.191 E0.0046
G1 X88.895 Y117.177 E0.0004
G1 X88.583 Y116.519 E0.0176
G1 X88.577 Y116.505 E0.0004
G1 X88.503 Y116.330 E0.0046
G1 X88.497 Y116.316 E0.0004
G1 X88.143 Y115.363 E0.0246
G1 X88.137 Y115.346 E0.0005
G1 X88.068 Y115.129 E0.0055
G1 X88.063 Y115.111 E0.0005
G1 X87.805 Y114.108 E0.0251
G1 X87.801 Y114.090 E0.0005
G1 X87.756 Y113.867 E0.0055
G1 X87.752 Y113.848 E0.0005
G1 X87.600 Y112.824 E0.0251
G1 X87.598 Y112.805 E0.0005
G1 X87.576 Y112.578 E0.0055
G1 X87.575 Y112.560 E0.0005
G1 X87.505 Y110.942 E0.0392
G1 X87.441 Y110.401 E0.0132
G1 X87.271 Y109.604 E0.0197
G1 X87.121 Y109.122 E0.0122
G1 X86.821 Y108.397 E0.0190
G1 X86.446 Y107.708 E0.0190
G1 X86.150 Y107.264 E0.0129
G1 X85.351 Y106.252 E0.0312
G1 X85.346 Y106.246 E0.0002
G1 X85.288 Y106.168 E0.0024
G1 X85.283 Y106.161 E0.0002
G1 X84.723 Y105.382 E0.0233
G1 X84.716 Y105.372 E0.0003
G1 X84.636 Y105.254 E0.0035
G1 X84.630 Y105.244 E0.0003
G1 X84.044 Y104.305 E0.0268
G1 X84.037 Y104.294 E0.0003
G1 X83.961 Y104.163 E0.0037
G1 X83.955 Y104.152 E0.0003
G1 X83.430 Y103.161 E0.0272
G1 X83.423 Y103.149 E0.0003
G1 X83.349 Y102.994 E0.0041
G1 X83.343 Y102.982 E0.0003
G1 X82.795 Y101.720 E0.0333
G1 X82.790 Y101.706 E0.0004
G1 X82.725 Y101.538 E0.0044
G1 X82.720 Y101.524 E0.0004
G1 X82.317 Y100.335 E0.0304
G1 X82.312 Y100.321 E0.0003
G1 X82.264 Y100.157 E0.0041
G1 X82.260 Y100.144 E0.0003
G1 X81.956 Y98.945 E0.0300
G1 X81.954 Y98.934 E0.0003
G1 X81.923 Y98.794 E0.0035
G1 X81.921 Y98.783 E0.0003
G1 X81.763 Y97.930 E0.0210
G1 X81.761 Y97.918 E0.0003
G1 X81.739 Y97.767 E0.0037
G1 X81.737 Y97.755 E0.0003
G1 X81.582 Y96.388 E0.0333
G1 X81.580 Y96.372 E0.0004
G1 X81.567 Y96.173 E0.0048
G1 X81.566 Y96.156 E0.0004
G1 X81.534 Y94.628 E0.0370
G1 X81.534 Y94.610 E0.0004
G1 X81.540 Y94.392 E0.0053
G1 X81.541 Y94.374 E0.0004
G1 X81.672 Y92.716 E0.0403
G1 X81.674 Y92.698 E0.0005
G1 X81.704 Y92.471 E0.0055
G1 X81.707 Y92.453 E0.0005
G1 X82.010 Y90.818 E0.0403
G1 X82.014 Y90.801 E0.0004
G1 X82.065 Y90.588 E0.0053
G1 X82.069 Y90.570 E0.0004
G1 X82.500 Y89.094 E0.0373
G1 X82.506 Y89.077 E0.0004
G1 X82.577 Y88.870 E0.0053
G1 X82.584 Y88.853 E0.0004
G1 X83.203 Y87.321 E0.0400
G1 X83.210 Y87.305 E0.0004
G1 X83.298 Y87.115 E0.0051
G1 X83.306 Y87.100 E0.0004
G1 X83.956 Y85.850 E0.0341
G1 X83.965 Y85.835 E0.0004
G1 X84.070 Y85.655 E0.0051
G1 X84.079 Y85.640 E0.0004
G1 X84.972 Y84.266 E0.0397
G1 X84.981 Y84.253 E0.0004
G1 X85.091 Y84.099 E0.0046
G1 X85.100 Y84.086 E0.0004
G1 X85.784 Y83.211 E0.0269
G1 X85.791 Y83.202 E0.0003
G1 X85.876 Y83.100 E0.0032
G1 X85.883 Y83.092 E0.0003
G1 X86.458 Y82.442 E0.0210
G1 X86.466 Y82.433 E0.0003
G1 X86.564 Y82.329 E0.0035
G1 X86.573 Y82.320 E0.0003
G1 X86.913 Y82.658 F5400
G1 X87.782 Y81.797 E0.0296 F2250
G1 X87.786 Y81.794 E0.0001
G1 X87.898 Y81.691 E0.0037
G1 X87.901 Y81.688 E0.0001
G1 X88.758 Y80.957 E0.0273
