;FLAVOR:Marlin
;TIME:1382
;Filament used: 1.23979m
;Layer height: 0.28
;MINX:83.933
;MINY:81.593
;MINZ:0.28
;MAXX:151.063
;MAXY:153.407
;MAXZ:3.92
;Generated with Cura_SteamEngine 4.8.0
M140 S50
M105
M190 S50
M104 S200
M105
M109 S200
M82 ;absolute extrusion mode
; Ender 3 Custom Start G-code
G92 E0 ; Reset Extruder
G28 ; Home all axes
G1 Z2.0 F3000 ; Move Z Axis up little to prevent scratching of Heat Bed
G1 X0.1 Y20 Z0.3 F5000.0 ; Move to start position
G1 X0.1 Y200.0 Z0.3 F1500.0 E15 ; Draw the first line
G1 X0.4 Y200.0 Z0.3 F5000.0 ; Move to side a little
G1 X0.4 Y20 Z0.3 F1500.0 E30 ; Draw the second line
G92 E0 ; Reset Extruder
G1 Z2.0 F3000 ; Move Z Axis up little to prevent scratching of Heat Bed
G1 X5 Y20 Z0.3 F5000.0 ; Move over to prevent blob squish
G92 E0
G92 E0
G1 F2700 E-5
;LAYER_COUNT:14
;LAYER:0
M107
G0 F6000 X93.704 Y85.42 Z0.28
;TYPE:SKIRT
G1 F2700 E0
G1 F1200 X94.345 Y84.736 E0.04365
G1 X95.043 Y84.109 E0.08734
G1 X95.791 Y83.543 E0.13102
G1 X96.584 Y83.043 E0.17467
G1 X97.418 Y82.613 E0.21836
G1 X98.285 Y82.255 E0.26204
G1 X99.179 Y81.973 E0.30569
G1 X100.094 Y81.767 E0.34936
G1 X101.023 Y81.64 E0.39302
G1 X101.96 Y81.593 E0.43671
G1 X102.897 Y81.626 E0.48037
G1 X103.828 Y81.739 E0.52404
G1 X104.293 Y81.825 E0.54605
G1 X104.931 Y81.96 E0.57642
G1 X106.663 Y82.35 E0.65909
G1 X109.075 Y82.816 E0.77348
G1 X111.592 Y83.232 E0.89227
G1 X114.062 Y83.569 E1.00835
G1 X116.582 Y83.84 E1.12637
G1 X119.095 Y84.039 E1.24375
G1 X121.614 Y84.167 E1.3612
G1 X124.102 Y84.222 E1.47708
G1 X126.625 Y84.207 E1.59456
G1 X129.137 Y84.121 E1.7116
G1 X132.087 Y83.926 E1.84926
G1 X132.469 Y83.905 E1.86708
G1 X133.407 Y83.893 E1.91076
G1 X134.342 Y83.961 E1.95441
G1 X135.269 Y84.109 E1.99812
G1 X136.179 Y84.336 E2.04179
G1 X137.066 Y84.638 E2.08542
G1 X137.925 Y85.016 E2.12912
G1 X138.748 Y85.465 E2.17278
G1 X139.53 Y85.983 E2.21646
G1 X140.265 Y86.565 E2.26011
G1 X140.948 Y87.208 E2.30379
G1 X141.574 Y87.907 E2.34748
G1 X142.138 Y88.656 E2.39114
G1 X142.635 Y89.451 E2.4348
G1 X143.064 Y90.285 E2.47847
G1 X143.42 Y91.153 E2.52216
G1 X143.757 Y92.269 E2.57644
G1 X143.953 Y93.068 E2.61475
G1 X144.605 Y95.565 E2.73492
G1 X145.311 Y97.989 E2.85248
G1 X146.091 Y100.407 E2.97078
G1 X146.93 Y102.778 E3.08789
G1 X147.747 Y104.9 E3.19377
G1 X149.21 Y108.351 E3.36831
G1 X149.748 Y109.555 E3.42972
G1 X149.97 Y110.09 E3.45669
G1 X150.109 Y110.451 E3.4747
G1 X150.224 Y110.762 E3.49014
G1 X150.351 Y111.124 E3.508
G1 X150.623 Y112.022 E3.55169
G1 X150.864 Y113.236 E3.60933
G1 X150.915 Y113.599 E3.6264
G1 X150.952 Y113.893 E3.64019
G1 X150.997 Y114.291 E3.65884
G1 X151.063 Y115.227 E3.70254
G1 X151.05 Y116.137 E3.74491
G1 X151.023 Y116.532 E3.76335
G1 X150.996 Y116.843 E3.77789
G1 X150.965 Y117.145 E3.79202
G1 X150.918 Y117.555 E3.81124
G1 X150.775 Y118.466 E3.85418
G1 X150.613 Y119.27 E3.89237
G1 X149.115 Y126.214 E4.22315
G1 X148.929 Y127.018 E4.26157
G1 X148.673 Y127.939 E4.30609
G1 X148.502 Y128.464 E4.3318
G1 X148.39 Y128.791 E4.34789
G1 X148.307 Y129.021 E4.35928
G1 X147.951 Y129.889 E4.40296
G1 X147.358 Y131.003 E4.46173
G1 X147.24 Y131.197 E4.4723
G1 X146.991 Y131.588 E4.49388
G1 X146.746 Y131.955 E4.51443
G1 X146.192 Y132.713 E4.55815
G1 X145.297 Y133.704 E4.62033
G1 X144.792 Y134.199 E4.65325
G1 X144.42 Y134.547 E4.67697
G1 X143.699 Y135.147 E4.72065
G1 X142.702 Y135.825 E4.77679
G1 X142.25 Y136.097 E4.80136
G1 X140.023 Y137.483 E4.9235
G1 X137.949 Y138.855 E5.03929
G1 X135.868 Y140.32 E5.1578
G1 X133.867 Y141.814 E5.27408
G1 X131.883 Y143.384 E5.39189
G1 X129.959 Y144.998 E5.50882
G1 X128.059 Y146.686 E5.62717
G1 X126.248 Y148.386 E5.74283
G1 X125.435 Y149.196 E5.79627
G1 X125.264 Y149.363 E5.8074
G1 X124.407 Y150.18 E5.86253
G1 X123.701 Y150.797 E5.90619
G1 X122.946 Y151.353 E5.94985
G1 X122.032 Y151.903 E5.99952
G1 X121.772 Y152.043 E6.01327
G1 X120.928 Y152.452 E6.05694
G1 X120.052 Y152.788 E6.10063
G1 X119.151 Y153.048 E6.1443
G1 X118.25 Y153.227 E6.18707
G1 X117.929 Y153.277 E6.2022
G1 X116.997 Y153.382 E6.24587
G1 X116.059 Y153.407 E6.28956
G1 X115.123 Y153.352 E6.33322
G1 X114.195 Y153.217 E6.37689
G1 X113.418 Y153.041 E6.41399
G1 X113.169 Y152.975 E6.42598
G1 X112.273 Y152.696 E6.46968
G1 X111.405 Y152.342 E6.51333
G1 X110.569 Y151.915 E6.55704
G1 X109.774 Y151.419 E6.60067
G1 X109.023 Y150.857 E6.64435
G1 X108.649 Y150.536 E6.6673
G1 X108.448 Y150.356 E6.67986
G1 X107.575 Y149.481 E6.73742
G1 X107.437 Y149.326 E6.74708
G1 X105.631 Y147.354 E6.87159
G1 X103.869 Y145.538 E6.98942
G1 X102.072 Y143.786 E7.10628
G1 X100.241 Y142.1 E7.22218
G1 X98.319 Y140.429 E7.34077
G1 X96.373 Y138.831 E7.45802
G1 X94.425 Y137.32 E7.57282
G1 X92.55 Y135.969 E7.68043
G1 X91.539 Y135.229 E7.73877
G1 X90.554 Y134.417 E7.79821
G1 X90.069 Y133.967 E7.82902
G1 X89.773 Y133.681 E7.84818
G1 X89.676 Y133.584 E7.85457
G1 X89.042 Y132.893 E7.89824
G1 X88.291 Y131.892 E7.95651
G1 X87.943 Y131.368 E7.9858
G1 X87.713 Y131.006 E8.00577
G1 X87.635 Y130.878 E8.01275
G1 X87.181 Y130.057 E8.05643
G1 X86.69 Y128.913 E8.1144
G1 X86.478 Y128.33 E8.14329
G1 X86.349 Y127.955 E8.16175
G1 X86.306 Y127.822 E8.16826
G1 X86.064 Y126.949 E8.21044
G1 X85.812 Y125.871 E8.26199
G1 X84.37 Y119.184 E8.58053
G1 X84.224 Y118.459 E8.61496
G1 X84.077 Y117.514 E8.6595
G1 X84.034 Y117.131 E8.67744
G1 X84.004 Y116.825 E8.69176
G1 X83.972 Y116.444 E8.70956
G1 X83.933 Y115.507 E8.75323
G1 X84.002 Y114.293 E8.80985
G1 X84.045 Y113.911 E8.82775
G1 X84.084 Y113.602 E8.84225
G1 X84.136 Y113.234 E8.85956
G1 X84.307 Y112.312 E8.90322
G1 X84.637 Y111.164 E8.95884
G1 X84.761 Y110.807 E8.97644
G1 X84.879 Y110.483 E8.9925
G1 X85.031 Y110.086 E9.01229
G1 X85.137 Y109.821 E9.02558
G1 X85.351 Y109.305 E9.05159
G1 X86.093 Y107.585 E9.13882
G1 X87.022 Y105.255 E9.25562
G1 X87.881 Y102.906 E9.37208
G1 X88.688 Y100.492 E9.4906
G1 X89.415 Y98.093 E9.60733
G1 X90.072 Y95.682 E9.72369
G1 X90.67 Y93.216 E9.84184
G1 X91.26 Y90.423 E9.97477
G1 X91.484 Y89.512 E10.01845
G1 X91.785 Y88.624 E10.06211
G1 X92.16 Y87.765 E10.10575
G1 X92.608 Y86.94 E10.14947
G1 X93.123 Y86.157 E10.19311
G1 X93.704 Y85.42 E10.23681
G0 F6000 X94.074 Y85.605
G1 F1200 X94.71 Y84.939 E10.27969
G1 X95.402 Y84.332 E10.32255
G1 X96.144 Y83.787 E10.36542
G1 X96.93 Y83.308 E10.40828
G1 X97.755 Y82.899 E10.45116
G1 X98.613 Y82.564 E10.49404
G1 X99.496 Y82.304 E10.53691
G1 X100.398 Y82.122 E10.57975
G1 X101.313 Y82.018 E10.62263
G1 X102.233 Y81.995 E10.66549
G1 X103.152 Y82.051 E10.70836
G1 X104.211 Y82.217 E10.75827
G1 X104.844 Y82.35 E10.78839
G1 X106.572 Y82.739 E10.87087
G1 X109.046 Y83.218 E10.98821
G1 X111.504 Y83.624 E11.10421
G1 X114.037 Y83.969 E11.22325
G1 X116.541 Y84.239 E11.34052
G1 X119.079 Y84.439 E11.45907
G1 X121.586 Y84.566 E11.57595
G1 X124.095 Y84.622 E11.69281
G1 X126.642 Y84.607 E11.81141
G1 X129.147 Y84.521 E11.92812
G1 X132.109 Y84.325 E12.06635
G1 X132.491 Y84.304 E12.08416
G1 X133.412 Y84.293 E12.12705
G1 X134.33 Y84.363 E12.16992
G1 X135.238 Y84.512 E12.21277
G1 X136.131 Y84.739 E12.25567
G1 X137 Y85.042 E12.29853
G1 X137.839 Y85.42 E12.34138
G1 X138.643 Y85.869 E12.38426
G1 X139.404 Y86.387 E12.42712
G1 X140.118 Y86.968 E12.46998
G1 X140.779 Y87.609 E12.51286
G1 X141.381 Y88.305 E12.55571
G1 X141.921 Y89.051 E12.59859
G1 X142.394 Y89.841 E12.64147
G1 X142.797 Y90.669 E12.68435
G1 X143.127 Y91.528 E12.72719
G1 X143.368 Y92.364 E12.76771
G1 X143.552 Y93.115 E12.80371
G1 X144.216 Y95.659 E12.92614
G1 X144.933 Y98.118 E13.04541
G1 X145.709 Y100.527 E13.16326
G1 X146.552 Y102.907 E13.28083
G1 X147.375 Y105.047 E13.38759
G1 X148.844 Y108.513 E13.56288
G1 X149.383 Y109.718 E13.62435
G1 X149.597 Y110.234 E13.65036
G1 X149.736 Y110.595 E13.66837
G1 X149.846 Y110.895 E13.68325
G1 X149.973 Y111.257 E13.70111
G1 X150.24 Y112.138 E13.74398
G1 X150.468 Y113.291 E13.79871
G1 X150.519 Y113.654 E13.81577
G1 X150.555 Y113.938 E13.8291
G1 X150.6 Y114.336 E13.84775
G1 X150.663 Y115.255 E13.89065
G1 X150.651 Y116.115 E13.9307
G1 X150.624 Y116.498 E13.94858
G1 X150.597 Y116.809 E13.96311
G1 X150.568 Y117.099 E13.97668
G1 X150.521 Y117.509 E13.9959
G1 X150.383 Y118.387 E14.03728
G1 X150.222 Y119.185 E14.07519
G1 X148.724 Y126.129 E14.40597
G1 X148.54 Y126.927 E14.4441
G1 X148.293 Y127.815 E14.48702
G1 X148.122 Y128.34 E14.51273
G1 X148.014 Y128.655 E14.52824
G1 X147.931 Y128.885 E14.53962
G1 X147.581 Y129.737 E14.58251
G1 X147.016 Y130.795 E14.63836
G1 X146.898 Y130.989 E14.64894
G1 X146.658 Y131.366 E14.66975
G1 X146.413 Y131.733 E14.69029
G1 X145.869 Y132.476 E14.73317
G1 X145.017 Y133.418 E14.79232
G1 X144.512 Y133.913 E14.82524
G1 X144.151 Y134.251 E14.84827
G1 X143.443 Y134.839 E14.89113
G1 X142.496 Y135.482 E14.94443
G1 X142.039 Y135.757 E14.96926
G1 X139.813 Y137.142 E15.09134
G1 X137.728 Y138.522 E15.20776
G1 X135.621 Y140.005 E15.32774
G1 X133.63 Y141.491 E15.44343
G1 X131.619 Y143.083 E15.56286
G1 X129.7 Y144.693 E15.6795
G1 X127.804 Y146.376 E15.79755
G1 X125.975 Y148.095 E15.91442
G1 X125.153 Y148.913 E15.96842
G1 X124.988 Y149.073 E15.97912
G1 X124.131 Y149.89 E16.03426
G1 X123.438 Y150.496 E16.07712
G1 X122.695 Y151.039 E16.11998
G1 X121.842 Y151.551 E16.1663
G1 X121.582 Y151.691 E16.18005
G1 X120.754 Y152.092 E16.22289
G1 X119.893 Y152.419 E16.26578
G1 X119.008 Y152.671 E16.30862
G1 X118.188 Y152.832 E16.34754
G1 X117.867 Y152.882 E16.36266
G1 X116.952 Y152.984 E16.40553
G1 X116.032 Y153.006 E16.44838
G1 X115.113 Y152.948 E16.49126
G1 X114.203 Y152.811 E16.53411
G1 X113.52 Y152.654 E16.56675
G1 X113.271 Y152.588 E16.57874
G1 X112.392 Y152.314 E16.62161
G1 X111.541 Y151.964 E16.66446
G1 X110.722 Y151.542 E16.70736
G1 X109.944 Y151.051 E16.7502
G1 X108.916 Y150.238 E16.81123
G1 X108.715 Y150.058 E16.82379
G1 X107.873 Y149.215 E16.87927
G1 X107.672 Y148.989 E16.89335
G1 X105.93 Y147.088 E17.01342
G1 X104.152 Y145.255 E17.13233
G1 X102.358 Y143.506 E17.24899
G1 X100.492 Y141.787 E17.36713
G1 X98.59 Y140.134 E17.48447
G1 X96.627 Y138.522 E17.60274
G1 X94.668 Y137.003 E17.71817
G1 X92.786 Y135.647 E17.82618
G1 X91.775 Y134.907 E17.88452
G1 X90.826 Y134.123 E17.94184
G1 X90.341 Y133.673 E17.97265
G1 X90.056 Y133.398 E17.99109
G1 X89.959 Y133.301 E17.99748
G1 X89.337 Y132.623 E18.04032
G1 X88.624 Y131.67 E18.09574
G1 X88.276 Y131.146 E18.12503
G1 X88.054 Y130.798 E18.14425
G1 X87.976 Y130.67 E18.15123
G1 X87.532 Y129.864 E18.19408
G1 X87.066 Y128.776 E18.2492
G1 X86.854 Y128.193 E18.27808
G1 X86.73 Y127.832 E18.29586
G1 X86.687 Y127.699 E18.30236
G1 X86.453 Y126.858 E18.34301
G1 X86.203 Y125.787 E18.39422
G1 X84.792 Y119.248 E18.70571
G1 X84.617 Y118.38 E18.74695
G1 X84.474 Y117.47 E18.78984
G1 X84.431 Y117.087 E18.80778
G1 X84.402 Y116.791 E18.82163
G1 X84.37 Y116.41 E18.83944
G1 X84.333 Y115.49 E18.88231
G1 X84.4 Y114.337 E18.93609
G1 X84.443 Y113.955 E18.95399
G1 X84.48 Y113.658 E18.96793
G1 X84.532 Y113.29 E18.98523
G1 X84.701 Y112.385 E19.0281
G1 X85.015 Y111.295 E19.08092
G1 X85.139 Y110.938 E19.09852
G1 X85.253 Y110.626 E19.11399
G1 X85.405 Y110.229 E19.13378
G1 X85.506 Y109.973 E19.14659
G1 X85.718 Y109.463 E19.17231
G1 X86.466 Y107.73 E19.2602
G1 X87.4 Y105.386 E19.3777
G1 X88.265 Y103.022 E19.49491
G1 X89.064 Y100.63 E19.61234
G1 X89.798 Y98.209 E19.73014
G1 X90.463 Y95.769 E19.8479
G1 X91.064 Y93.288 E19.96677
G1 X91.619 Y90.666 E20.09157
G1 X91.652 Y90.502 E20.09936
G1 X91.873 Y89.608 E20.14224
G1 X92.17 Y88.737 E20.18509
G1 X92.542 Y87.895 E20.22795
G1 X92.986 Y87.088 E20.27084
G1 X93.498 Y86.323 E20.3137
G1 X94.074 Y85.605 E20.35656
G0 F6000 X94.443 Y85.791
G1 F1200 X95.075 Y85.145 E20.39865
G1 X95.761 Y84.558 E20.44069
G1 X96.496 Y84.034 E20.48272
G1 X97.275 Y83.577 E20.52477
G1 X98.091 Y83.19 E20.56683
G1 X98.938 Y82.877 E20.60887
G1 X99.81 Y82.641 E20.65094
G1 X100.699 Y82.482 E20.69299
G1 X101.598 Y82.403 E20.73501
G1 X102.502 Y82.403 E20.77711
G1 X103.401 Y82.484 E20.81914
G1 X104.129 Y82.608 E20.85353
G1 X104.603 Y82.707 E20.87607
G1 X106.474 Y83.127 E20.96536
G1 X108.942 Y83.605 E21.08242
G1 X111.457 Y84.02 E21.20111
G1 X114.011 Y84.369 E21.32114
G1 X116.503 Y84.637 E21.43785
G1 X119.026 Y84.837 E21.5557
G1 X121.592 Y84.967 E21.67534
G1 X124.089 Y85.022 E21.79163
G1 X126.657 Y85.007 E21.91121
G1 X129.156 Y84.921 E22.02765
G1 X132.131 Y84.724 E22.16648
G1 X132.513 Y84.703 E22.18429
G1 X133.416 Y84.694 E22.22634
G1 X134.317 Y84.764 E22.26842
G1 X135.207 Y84.914 E22.31045
G1 X136.081 Y85.142 E22.35251
G1 X136.931 Y85.446 E22.39454
G1 X137.751 Y85.824 E22.43659
G1 X138.535 Y86.274 E22.47868
G1 X139.275 Y86.79 E22.52069
G1 X139.967 Y87.371 E22.56276
G1 X140.605 Y88.01 E22.60481
G1 X141.184 Y88.703 E22.64686
G1 X141.699 Y89.445 E22.68891
G1 X142.147 Y90.229 E22.73096
G1 X142.523 Y91.05 E22.77301
G1 X142.826 Y91.901 E22.81507
G1 X142.98 Y92.459 E22.84202
G1 X143.175 Y93.256 E22.88023
G1 X143.831 Y95.769 E23.00117
G1 X144.554 Y98.248 E23.12141
G1 X145.323 Y100.635 E23.23818
G1 X146.177 Y103.048 E23.35737
G1 X147.003 Y105.193 E23.4644
G1 X148.497 Y108.718 E23.64268
G1 X149.017 Y109.881 E23.702
G1 X149.224 Y110.378 E23.72707
G1 X149.363 Y110.739 E23.74508
G1 X149.469 Y111.027 E23.75937
G1 X149.596 Y111.389 E23.77723
G1 X149.857 Y112.254 E23.8193
G1 X150.072 Y113.347 E23.87117
G1 X150.123 Y113.71 E23.88824
G1 X150.157 Y113.983 E23.90105
G1 X150.202 Y114.381 E23.9197
G1 X150.264 Y115.282 E23.96176
G1 X150.251 Y116.093 E23.99952
G1 X150.226 Y116.463 E24.01679
G1 X150.199 Y116.774 E24.03133
G1 X150.171 Y117.054 E24.04443
G1 X150.124 Y117.464 E24.06365
G1 X149.991 Y118.308 E24.10343
G1 X149.831 Y119.101 E24.1411
G1 X148.333 Y126.045 E24.47188
G1 X148.15 Y126.837 E24.50973
G1 X147.913 Y127.691 E24.551
G1 X147.742 Y128.216 E24.57671
G1 X147.637 Y128.519 E24.59164
G1 X147.554 Y128.749 E24.60303
G1 X147.211 Y129.584 E24.64506
G1 X146.675 Y130.588 E24.69806
G1 X146.557 Y130.782 E24.70863
G1 X146.325 Y131.144 E24.72865
G1 X146.08 Y131.511 E24.7492
G1 X145.546 Y132.239 E24.79124
G1 X144.737 Y133.132 E24.84735
G1 X144.232 Y133.627 E24.88028
G1 X143.882 Y133.955 E24.90261
G1 X143.188 Y134.531 E24.94461
G1 X142.289 Y135.14 E24.99517
G1 X141.807 Y135.43 E25.02136
G1 X139.612 Y136.796 E25.14175
G1 X137.499 Y138.194 E25.25972
G1 X135.398 Y139.673 E25.37936
G1 X133.366 Y141.19 E25.49744
G1 X131.38 Y142.762 E25.61538
G1 X129.423 Y144.404 E25.73433
G1 X127.546 Y146.07 E25.8512
G1 X125.685 Y147.819 E25.97012
G1 X124.871 Y148.629 E26.02359
G1 X124.712 Y148.784 E26.03393
G1 X123.855 Y149.601 E26.08906
G1 X123.175 Y150.194 E26.13107
G1 X122.444 Y150.725 E26.17315
G1 X121.653 Y151.199 E26.21608
G1 X121.393 Y151.339 E26.22983
G1 X120.579 Y151.731 E26.2719
G1 X119.735 Y152.05 E26.31392
G1 X118.865 Y152.293 E26.35598
G1 X118.127 Y152.436 E26.39098
G1 X117.806 Y152.486 E26.40611
G1 X116.908 Y152.586 E26.44818
G1 X116.005 Y152.605 E26.49024
G1 X115.104 Y152.545 E26.53229
G1 X114.212 Y152.405 E26.57433
G1 X113.623 Y152.268 E26.60249
G1 X113.374 Y152.202 E26.61448
G1 X112.512 Y151.932 E26.65655
G1 X111.677 Y151.587 E26.69861
G1 X110.876 Y151.169 E26.74069
G1 X110.116 Y150.683 E26.78269
G1 X109.182 Y149.94 E26.83827
G1 X108.981 Y149.76 E26.85083
G1 X108.172 Y148.949 E26.90417
G1 X107.983 Y148.737 E26.91739
G1 X106.229 Y146.822 E27.03832
G1 X104.436 Y144.973 E27.15825
G1 X102.625 Y143.208 E27.276
G1 X100.759 Y141.49 E27.3941
G1 X98.843 Y139.824 E27.51233
G1 X96.88 Y138.212 E27.63061
G1 X94.894 Y136.672 E27.74763
G1 X93.023 Y135.324 E27.85501
G1 X92.012 Y134.584 E27.91335
G1 X91.098 Y133.83 E27.96852
G1 X90.613 Y133.38 E27.99933
G1 X90.339 Y133.115 E28.01708
G1 X90.242 Y133.018 E28.02346
G1 X89.632 Y132.352 E28.06552
G1 X88.957 Y131.449 E28.11801
G1 X88.609 Y130.925 E28.1473
G1 X88.396 Y130.59 E28.16579
