;FLAVOR:Marlin
;TIME:11558
;Filament used: 9.65698m
;Layer height: 0.28
;MINX:33.616
;MINY:36.612
;MINZ:0.28
;MAXX:201.406
;MAXY:198.399
;MAXZ:20.44
;Generated with Cura_SteamEngine 4.8.0
M140 S50
M105
M190 S50
M104 S200
M105
M109 S200
M82 ;absolute extrusion mode
; Ender 3 Custom Start G-code
G92 E0 ; Reset Extruder
G28 ; Home all axes
G1 Z2.0 F3000 ; Move Z Axis up little to prevent scratching of Heat Bed
G1 X0.1 Y20 Z0.3 F5000.0 ; Move to start position
G1 X0.1 Y200.0 Z0.3 F1500.0 E15 ; Draw the first line
G1 X0.4 Y200.0 Z0.3 F5000.0 ; Move to side a little
G1 X0.4 Y20 Z0.3 F1500.0 E30 ; Draw the second line
G92 E0 ; Reset Extruder
G1 Z2.0 F3000 ; Move Z Axis up little to prevent scratching of Heat Bed
G1 X5 Y20 Z0.3 F5000.0 ; Move over to prevent blob squish
G92 E0
G92 E0
G1 F2700 E-5
;LAYER_COUNT:73
;LAYER:0
M107
G0 F6000 X49.934 Y40.817 Z0.28
;TYPE:SKIRT
G1 F2700 E0
G1 F1200 X50.544 Y40.105 E0.04366
G1 X51.213 Y39.447 E0.08735
G1 X51.935 Y38.849 E0.131
G1 X52.705 Y38.315 E0.17464
G1 X53.519 Y37.848 E0.21834
G1 X54.369 Y37.452 E0.262
G1 X55.25 Y37.129 E0.30569
G1 X56.155 Y36.884 E0.34935
G1 X57.078 Y36.716 E0.39304
G1 X58.011 Y36.627 E0.43668
G1 X58.627 Y36.612 E0.46537
G1 X59.654 Y36.616 E0.51319
G1 X59.883 Y36.619 E0.52386
G1 X76.857 Y37.039 E1.31448
G1 X77.728 Y37.073 E1.35507
G1 X78.663 Y37.149 E1.39875
G1 X79.588 Y37.306 E1.44243
G1 X80.496 Y37.54 E1.4861
G1 X81.38 Y37.851 E1.52973
G1 X82.466 Y38.356 E1.5855
G1 X82.68 Y38.47 E1.59679
G1 X83.009 Y38.652 E1.6143
G1 X93.734 Y44.846 E2.191
G1 X95.996 Y46.11 E2.31166
G1 X98.229 Y47.275 E2.42894
G1 X100.469 Y48.366 E2.54496
G1 X102.814 Y49.427 E2.6648
G1 X105.091 Y50.38 E2.77974
G1 X107.47 Y51.3 E2.89851
G1 X109.803 Y52.122 E3.01369
G1 X112.239 Y52.908 E3.13288
G1 X114.625 Y53.602 E3.24859
G1 X117.083 Y54.243 E3.36687
G1 X119.53 Y54.808 E3.48381
G1 X122.036 Y55.313 E3.60285
G1 X123.751 Y55.615 E3.68393
G1 X181.468 Y65.237 E6.40857
G1 X184.035 Y65.628 E6.52948
G1 X186.516 Y65.934 E6.64588
G1 X189.98 Y66.246 E6.80783
G1 X191.172 Y66.33 E6.86347
G1 X192.104 Y66.436 E6.90715
G1 X193.023 Y66.621 E6.9508
G1 X193.923 Y66.884 E6.99446
G1 X194.798 Y67.222 E7.03814
G1 X195.641 Y67.633 E7.08181
G1 X196.445 Y68.115 E7.12546
G1 X197.206 Y68.664 E7.16915
G1 X197.917 Y69.275 E7.21281
G1 X198.574 Y69.945 E7.2565
G1 X199.171 Y70.668 E7.30016
G1 X199.704 Y71.44 E7.34384
G1 X200.17 Y72.254 E7.38752
G1 X200.564 Y73.105 E7.43119
G1 X200.885 Y73.986 E7.47485
G1 X201.129 Y74.892 E7.51854
G1 X201.296 Y75.815 E7.56221
G1 X201.393 Y76.995 E7.61735
G1 X201.402 Y77.316 E7.6323
G1 X201.406 Y77.624 E7.64664
G1 X201.405 Y78.25 E7.67579
G1 X201.398 Y80.355 E7.77381
G1 X201.405 Y81.266 E7.81623
G1 X201.389 Y169.875 E11.94224
G1 X201.379 Y170.568 E11.97451
G1 X201.325 Y171.504 E12.01817
G1 X201.192 Y172.432 E12.06182
G1 X200.981 Y173.346 E12.1055
G1 X200.692 Y174.238 E12.14916
G1 X200.328 Y175.103 E12.19286
G1 X199.892 Y175.933 E12.23651
G1 X199.387 Y176.723 E12.28017
G1 X198.816 Y177.468 E12.32388
G1 X198.184 Y178.161 E12.36755
G1 X197.496 Y178.797 E12.41118
G1 X196.805 Y179.338 E12.45204
G1 X196.534 Y179.533 E12.46759
G1 X196.271 Y179.716 E12.48251
G1 X172.774 Y195.606 E13.80333
G1 X172.176 Y195.998 E13.83662
G1 X171.37 Y196.478 E13.8803
G1 X170.23 Y197.011 E13.9389
G1 X169.879 Y197.149 E13.95646
G1 X169.456 Y197.307 E13.97749
G1 X169.179 Y197.406 E13.99119
G1 X168.582 Y197.611 E14.02058
G1 X168.256 Y197.717 E14.03654
G1 X168.12 Y197.759 E14.04317
G1 X167.579 Y197.911 E14.06934
G1 X167.307 Y197.98 E14.0824
G1 X166.386 Y198.172 E14.12621
G1 X166.094 Y198.22 E14.13999
G1 X165.59 Y198.291 E14.16369
G1 X165.368 Y198.317 E14.1741
G1 X164.708 Y198.375 E14.20495
G1 X164.584 Y198.382 E14.21073
G1 X163.865 Y198.399 E14.24422
G1 X163.642 Y198.397 E14.2546
G1 X163.164 Y198.382 E14.27687
G1 X162.764 Y198.361 E14.29552
G1 X161.502 Y198.221 E14.35465
G1 X160.977 Y198.132 E14.37944
G1 X160.355 Y198.008 E14.40898
G1 X160.294 Y197.994 E14.41189
G1 X159.021 Y197.62 E14.47367
G1 X158.599 Y197.465 E14.49461
G1 X158.358 Y197.373 E14.50662
G1 X153.585 Y195.485 E14.74562
G1 X152.942 Y195.219 E14.77803
G1 X152.091 Y194.823 E14.82173
G1 X151.278 Y194.357 E14.86537
G1 X150.206 Y193.588 E14.9268
G1 X149.965 Y193.392 E14.94126
G1 X149.264 Y192.77 E14.9849
G1 X148.871 Y192.371 E15.01098
G1 X148.583 Y192.063 E15.03061
G1 X147.973 Y191.351 E15.07427
G1 X147.465 Y190.652 E15.11451
G1 X147.323 Y190.439 E15.12643
G1 X146.688 Y189.357 E15.18485
G1 X146.549 Y189.086 E15.19903
G1 X146.048 Y187.958 E15.2565
G1 X145.961 Y187.728 E15.26795
G1 X145.619 Y186.661 E15.32012
G1 X145.581 Y186.518 E15.32701
G1 X145.456 Y185.996 E15.35201
G1 X145.321 Y185.364 E15.3821
G1 X144.929 Y183.415 E15.47467
G1 X144.369 Y180.984 E15.59083
G1 X143.733 Y178.543 E15.70829
G1 X143.034 Y176.14 E15.82482
G1 X142.255 Y173.717 E15.94334
G1 X141.422 Y171.361 E16.0597
G1 X140.519 Y169.02 E16.17653
G1 X139.537 Y166.668 E16.29521
G1 X138.512 Y164.401 E16.41106
G1 X137.4 Y162.116 E16.52939
G1 X136.256 Y159.923 E16.64457
G1 X135.007 Y157.686 E16.76387
G1 X133.735 Y155.554 E16.87947
G1 X132.363 Y153.393 E16.99866
G1 X130.964 Y151.323 E17.115
G1 X129.504 Y149.288 E17.23162
G1 X127.971 Y147.276 E17.3494
G1 X126.397 Y145.324 E17.46617
G1 X124.754 Y143.401 E17.58394
G1 X123.077 Y141.548 E17.70031
G1 X121.322 Y139.717 E17.81841
G1 X119.537 Y137.955 E17.9352
G1 X117.69 Y136.233 E18.05279
G1 X115.802 Y134.572 E18.16988
G1 X113.884 Y132.976 E18.28607
G1 X111.871 Y131.396 E18.40522
G1 X109.852 Y129.902 E18.52218
G1 X107.812 Y128.479 E18.63799
G1 X105.711 Y127.1 E18.75502
G1 X103.539 Y125.762 E18.8738
G1 X101.384 Y124.517 E18.98969
G1 X99.155 Y123.312 E19.10768
G1 X96.913 Y122.18 E19.22463
G1 X94.597 Y121.092 E19.34378
G1 X93.36 Y120.543 E19.4068
G1 X92.257 Y120.064 E19.46279
G1 X91.426 Y119.66 E19.50582
G1 X91.112 Y119.491 E19.52242
G1 X90.823 Y119.33 E19.53782
G1 X40.406 Y90.209 E22.24893
G1 X39.815 Y89.856 E22.28098
G1 X39.031 Y89.341 E22.32466
G1 X38.294 Y88.761 E22.36833
G1 X37.609 Y88.121 E22.41198
G1 X36.981 Y87.424 E22.45567
G1 X36.414 Y86.677 E22.49934
G1 X35.914 Y85.884 E22.54299
G1 X35.482 Y85.051 E22.58668
G1 X35.123 Y84.185 E22.63034
G1 X34.839 Y83.291 E22.67401
G1 X34.589 Y82.12 E22.72977
G1 X34.454 Y81.254 E22.77058
G1 X33.806 Y76.694 E22.98505
G1 X33.695 Y75.822 E23.02598
G1 X33.616 Y74.888 E23.06962
G1 X33.618 Y73.95 E23.1133
G1 X33.699 Y73.015 E23.157
G1 X33.86 Y72.091 E23.20068
G1 X34.099 Y71.184 E23.24435
G1 X34.414 Y70.301 E23.28801
G1 X34.778 Y69.498 E23.32906
G1 X35.158 Y68.745 E23.36833
G1 X48.59 Y42.969 E24.72176
G1 X48.906 Y42.384 E24.75272
G1 X49.386 Y41.579 E24.79636
G1 X49.934 Y40.817 E24.84007
G0 F6000 X50.269 Y41.038
G1 F1200 X50.871 Y40.341 E24.88295
G1 X51.531 Y39.699 E24.92582
G1 X52.244 Y39.117 E24.96868
G1 X53.005 Y38.599 E25.01155
G1 X53.808 Y38.149 E25.05441
G1 X54.648 Y37.77 E25.09732
G1 X55.516 Y37.466 E25.14014
G1 X56.408 Y37.238 E25.18301
G1 X57.317 Y37.088 E25.22591
G1 X58.625 Y37.012 E25.28692
G1 X59.652 Y37.016 E25.33474
G1 X59.873 Y37.019 E25.34504
G1 X77.003 Y37.444 E26.14293
G1 X77.712 Y37.472 E26.17597
G1 X78.63 Y37.549 E26.21886
G1 X79.537 Y37.704 E26.26171
G1 X80.428 Y37.938 E26.3046
G1 X81.295 Y38.248 E26.34748
G1 X82.278 Y38.709 E26.39803
G1 X82.492 Y38.823 E26.40932
G1 X82.809 Y38.999 E26.42621
G1 X93.492 Y45.168 E27.00063
G1 X95.822 Y46.471 E27.12494
G1 X98.019 Y47.618 E27.24035
G1 X100.337 Y48.746 E27.36038
G1 X102.601 Y49.77 E27.47609
G1 X104.984 Y50.768 E27.59639
G1 X107.318 Y51.67 E27.7129
G1 X109.696 Y52.508 E27.83031
G1 X112.101 Y53.284 E27.94798
G1 X114.527 Y53.99 E28.06563
G1 X116.997 Y54.634 E28.18449
G1 X119.433 Y55.196 E28.3009
G1 X121.967 Y55.707 E28.42127
G1 X123.627 Y55.999 E28.49975
G1 X181.407 Y65.632 E31.22736
G1 X184.002 Y66.027 E31.34959
G1 X186.488 Y66.334 E31.46623
G1 X189.919 Y66.643 E31.62663
G1 X191.143 Y66.729 E31.68377
G1 X192.058 Y66.834 E31.72666
G1 X192.96 Y67.018 E31.76952
G1 X193.843 Y67.279 E31.8124
G1 X194.7 Y67.616 E31.85528
G1 X195.524 Y68.026 E31.89813
G1 X196.31 Y68.505 E31.94099
G1 X197.051 Y69.052 E31.98388
G1 X197.742 Y69.66 E32.02674
G1 X198.377 Y70.326 E32.06959
G1 X198.953 Y71.045 E32.11248
G1 X199.463 Y71.811 E32.15533
G1 X199.906 Y72.619 E32.19824
G1 X200.276 Y73.461 E32.24107
G1 X200.572 Y74.333 E32.28395
G1 X200.792 Y75.227 E32.32682
G1 X200.933 Y76.137 E32.3697
G1 X200.993 Y77.006 E32.41026
G1 X201.002 Y77.327 E32.42521
G1 X201.006 Y77.624 E32.43904
G1 X201.005 Y78.244 E32.46791
G1 X200.998 Y80.359 E32.5664
G1 X201.005 Y81.266 E32.60863
G1 X200.989 Y169.869 E36.73436
G1 X200.979 Y170.562 E36.76663
G1 X200.926 Y171.481 E36.80949
G1 X200.793 Y172.392 E36.85236
G1 X200.581 Y173.288 E36.89524
G1 X200.293 Y174.162 E36.93809
G1 X199.93 Y175.009 E36.98099
G1 X199.495 Y175.82 E37.02385
G1 X198.991 Y176.59 E37.0667
G1 X198.422 Y177.314 E37.10958
G1 X197.793 Y177.986 E37.15244
G1 X197.107 Y178.601 E37.19534
G1 X196.571 Y179.013 E37.22682
G1 X196.3 Y179.208 E37.24236
G1 X196.047 Y179.385 E37.25674
G1 X172.681 Y195.187 E38.57021
G1 X171.956 Y195.663 E38.61059
G1 X171.165 Y196.134 E38.65346
G1 X170.082 Y196.64 E38.70912
G1 X169.739 Y196.774 E38.72627
G1 X169.316 Y196.932 E38.7473
G1 X169.05 Y197.027 E38.76045
G1 X168.453 Y197.232 E38.78984
G1 X168.138 Y197.335 E38.80527
G1 X168.002 Y197.377 E38.8119
G1 X167.48 Y197.524 E38.83715
G1 X167.208 Y197.593 E38.85022
G1 X166.321 Y197.778 E38.89241
G1 X166.029 Y197.826 E38.90619
G1 X165.543 Y197.894 E38.92904
G1 X165.321 Y197.92 E38.93945
G1 X164.685 Y197.975 E38.96917
G1 X164.561 Y197.982 E38.97496
G1 X163.869 Y197.999 E39.00719
G1 X163.646 Y197.997 E39.01757
G1 X163.185 Y197.982 E39.03905
G1 X162.785 Y197.961 E39.0577
G1 X161.569 Y197.827 E39.11467
G1 X161.044 Y197.738 E39.13946
G1 X160.445 Y197.618 E39.16791
G1 X160.384 Y197.604 E39.17082
G1 X159.157 Y197.244 E39.23036
G1 X158.741 Y197.092 E39.25099
G1 X158.505 Y197.001 E39.26277
G1 X153.893 Y195.178 E39.49369
G1 X153.095 Y194.849 E39.53388
G1 X152.26 Y194.46 E39.57677
G1 X151.463 Y194.001 E39.6196
G1 X150.459 Y193.278 E39.67721
G1 X150.218 Y193.082 E39.69167
G1 X149.53 Y192.47 E39.73455
G1 X149.164 Y192.098 E39.75885
G1 X148.876 Y191.79 E39.77849
G1 X148.277 Y191.091 E39.82135
G1 X147.798 Y190.43 E39.85936
G1 X147.656 Y190.217 E39.87128
G1 X147.044 Y189.175 E39.92755
G1 X146.905 Y188.904 E39.94173
G1 X146.423 Y187.816 E39.99714
G1 X146.336 Y187.586 E40.00859
G1 X146.006 Y186.558 E40.05887
G1 X145.968 Y186.415 E40.06576
G1 X145.847 Y185.913 E40.0898
G1 X145.714 Y185.285 E40.11969
G1 X145.326 Y183.352 E40.2115
G1 X144.76 Y180.898 E40.32877
G1 X144.118 Y178.435 E40.44729
G1 X143.413 Y176.011 E40.56483
G1 X142.641 Y173.609 E40.68232
G1 X141.785 Y171.19 E40.8018
G1 X140.898 Y168.888 E40.91667
G1 X139.918 Y166.54 E41.03515
G1 X138.859 Y164.198 E41.15483
G1 X137.771 Y161.963 E41.27058
G1 X136.588 Y159.695 E41.38969
G1 X135.357 Y157.492 E41.5072
G1 X134.073 Y155.34 E41.62388
G1 X132.716 Y153.201 E41.74184
G1 X131.288 Y151.088 E41.86059
G1 X129.831 Y149.058 E41.97694
G1 X128.285 Y147.028 E42.09576
G1 X126.697 Y145.059 E42.21355
G1 X125.054 Y143.136 E42.33132
G1 X123.363 Y141.268 E42.44865
G1 X121.609 Y139.438 E42.56668
G1 X119.808 Y137.661 E42.68449
G1 X117.964 Y135.941 E42.80191
G1 X116.077 Y134.28 E42.91897
G1 X114.12 Y132.652 E43.0375
G1 X112.133 Y131.093 E43.15511
G1 X110.089 Y129.58 E43.27352
G1 X108.037 Y128.149 E43.39001
G1 X105.909 Y126.752 E43.50854
G1 X103.753 Y125.425 E43.62643
G1 X101.568 Y124.162 E43.74395
G1 X99.332 Y122.953 E43.86231
G1 X97.098 Y121.825 E43.97884
G1 X94.75 Y120.722 E44.09964
G1 X93.52 Y120.176 E44.1623
G1 X92.417 Y119.697 E44.21829
G1 X91.615 Y119.308 E44.2598
G1 X91.301 Y119.139 E44.2764
G1 X91.023 Y118.984 E44.29122
G1 X40.611 Y89.865 E47.00208
G1 X40.02 Y89.512 E47.03413
G1 X39.251 Y89.006 E47.077
G1 X38.529 Y88.435 E47.11986
G1 X37.859 Y87.804 E47.16272
G1 X37.246 Y87.117 E47.20559
G1 X36.695 Y86.379 E47.24847
G1 X36.211 Y85.597 E47.2913
G1 X35.795 Y84.775 E47.3342
G1 X35.453 Y83.92 E47.37708
G1 X35.187 Y83.039 E47.41993
G1 X34.985 Y82.058 E47.46657
G1 X34.85 Y81.197 E47.50715
G1 X34.181 Y76.481 E47.72894
G1 X34.091 Y75.772 E47.76222
G1 X34.015 Y74.854 E47.80511
G1 X34.019 Y73.934 E47.84795
G1 X34.103 Y73.017 E47.89083
G1 X34.265 Y72.111 E47.93369
G1 X34.506 Y71.222 E47.97658
G1 X34.823 Y70.358 E48.01943
G1 X35.135 Y69.678 E48.05427
G1 X35.441 Y69.069 E48.086
G1 X48.942 Y43.159 E49.44645
G1 X49.258 Y42.574 E49.47741
G1 X49.73 Y41.784 E49.52026
G1 X50.269 Y41.038 E49.56311
G0 F6000 X50.604 Y41.259
G1 F1200 X51.198 Y40.578 E49.60519
G1 X51.849 Y39.952 E49.64725
G1 X52.553 Y39.386 E49.68931
G1 X53.304 Y38.885 E49.73135
G1 X54.096 Y38.452 E49.77338
G1 X54.924 Y38.091 E49.81544
G1 X55.781 Y37.805 E49.85751
G1 X56.659 Y37.595 E49.89954
G1 X57.553 Y37.464 E49.94162
G1 X58.624 Y37.412 E49.99154
G1 X59.651 Y37.416 E50.03937
G1 X59.863 Y37.419 E50.04924
G1 X76.988 Y37.844 E50.8469
G1 X77.697 Y37.872 E50.87994
G1 X78.596 Y37.947 E50.92194
G1 X79.486 Y38.102 E50.96401
G1 X80.359 Y38.335 E51.00608
G1 X81.207 Y38.645 E51.04812
G1 X82.09 Y39.062 E51.09359
G1 X82.304 Y39.176 E51.10488
G1 X82.609 Y39.345 E51.12112
G1 X93.303 Y45.52 E51.69613
G1 X95.621 Y46.816 E51.81979
G1 X97.866 Y47.988 E51.93772
G1 X100.147 Y49.099 E52.05586
G1 X102.46 Y50.145 E52.17406
G1 X104.821 Y51.133 E52.29324
G1 X107.207 Y52.056 E52.41236
G1 X109.556 Y52.884 E52.52834
G1 X111.971 Y53.662 E52.64648
G1 X114.419 Y54.375 E52.76521
G1 X116.911 Y55.025 E52.88513
G1 X119.335 Y55.585 E53.00097
G1 X121.897 Y56.101 E53.12267
G1 X123.613 Y56.403 E53.2038
G1 X181.347 Y66.028 E55.92924
G1 X183.929 Y66.421 E56.05085
G1 X186.434 Y66.73 E56.16838
G1 X189.905 Y67.043 E56.33066
G1 X191.115 Y67.128 E56.38714
G1 X192.012 Y67.232 E56.42919
G1 X192.897 Y67.414 E56.47126
G1 X193.762 Y67.674 E56.51332
G1 X194.6 Y68.009 E56.55534
G1 X195.406 Y68.418 E56.59743
G1 X196.172 Y68.895 E56.63945
G1 X196.893 Y69.439 E56.6815
G1 X197.563 Y70.045 E56.72357
G1 X198.177 Y70.707 E56.76561
G1 X198.73 Y71.421 E56.80767
G1 X199.218 Y72.181 E56.84972
G1 X199.636 Y72.982 E56.89179
G1 X199.982 Y73.816 E56.93384
G1 X200.253 Y74.677 E56.97587
G1 X200.447 Y75.559 E57.01792
G1 X200.562 Y76.455 E57.05998
G1 X200.593 Y77.017 E57.08619
G1 X200.602 Y77.338 E57.10114
G1 X200.606 Y77.624 E57.11446
G1 X200.605 Y78.239 E57.1431
G1 X200.598 Y80.362 E57.24196
G1 X200.605 Y81.266 E57.28405
G1 X200.589 Y169.863 E61.4095
G1 X200.579 Y170.556 E61.44177
G1 X200.526 Y171.458 E61.48384
G1 X200.393 Y172.351 E61.52589
G1 X200.182 Y173.229 E61.56793
G1 X199.895 Y174.085 E61.60997
G1 X199.532 Y174.912 E61.65203
G1 X199.098 Y175.704 E61.69408
G1 X198.595 Y176.455 E61.73617
G1 X198.028 Y177.158 E61.77822
G1 X197.401 Y177.808 E61.82028
G1 X196.719 Y178.4 E61.86233
G1 X196.337 Y178.688 E61.88461
G1 X196.066 Y178.883 E61.90015
G1 X195.823 Y179.053 E61.91396
G1 X172.335 Y194.937 E63.23427
G1 X171.737 Y195.329 E63.26757
G1 X170.96 Y195.79 E63.30964
G1 X169.933 Y196.268 E63.36238
G1 X169.599 Y196.399 E63.37909
G1 X169.176 Y196.557 E63.40012
G1 X168.92 Y196.649 E63.41278
G1 X168.323 Y196.854 E63.44217
G1 X168.02 Y196.953 E63.45702
G1 X167.884 Y196.995 E63.46365
G1 X167.382 Y197.136 E63.48793
G1 X167.11 Y197.205 E63.50099
G1 X166.257 Y197.383 E63.54157
G1 X165.965 Y197.431 E63.55535
G1 X165.496 Y197.497 E63.5774
G1 X165.274 Y197.523 E63.58781
G1 X164.663 Y197.576 E63.61637
G1 X164.539 Y197.583 E63.62215
G1 X163.873 Y197.599 E63.65317
G1 X163.65 Y197.597 E63.66355
G1 X163.206 Y197.583 E63.68424
G1 X162.806 Y197.562 E63.70289
G1 X161.636 Y197.433 E63.7577
G1 X161.111 Y197.344 E63.78249
G1 X160.534 Y197.229 E63.80989
